X: 14900
T: Gates Of Derry, The
R: jig
M: 6/8
K: Dmajor
|:A|def A2f|g2f e2A|def AFA|B3 d2A|
def Adf|agf e2A|def AFA|B3 d2:|
|:A|d2f a2f|b2g a2f|def agf|f3 a2a|
b2g efg|a2f d2A|def AFA|B3 d2:|

